assets/icons/eye_min.svg

<svg width="15" height="14" viewBox="0 0 15 14" fill="none" xmlns="http://www.w3.org/2000/svg">
<path fill-rule="evenodd" clip-rule="evenodd" d="M3.72026 3.91647C4.71522 3.13973 6.00059 2.47974 7.50008 2.47974C8.9996 2.47974 10.2849 3.13973 11.2799 3.91647C12.2758 4.69393 13.0118 5.61208 13.4236 6.18944L13.4546 6.23273C13.6023 6.43812 13.7709 6.67262 13.7709 7.00057C13.7709 7.32852 13.6023 7.56302 13.4546 7.76841L13.4236 7.8117C13.0118 8.38908 12.2758 9.30719 11.2799 10.0847C10.2849 10.8614 8.9996 11.5214 7.50008 11.5214C6.00059 11.5214 4.71522 10.8614 3.72026 10.0847C2.72441 9.30719 1.98832 8.38908 1.57657 7.8117L1.54553 7.76841C1.39785 7.56302 1.22925 7.32852 1.22925 7.00057C1.22925 6.67262 1.39785 6.43812 1.54553 6.23273L1.57657 6.18944C1.98832 5.61208 2.72441 4.69393 3.72026 3.91647ZM5.45841 7.00057C5.45841 8.12815 6.3725 9.04224 7.50008 9.04224C8.62766 9.04224 9.54175 8.12815 9.54175 7.00057C9.54175 5.87299 8.62766 4.9589 7.50008 4.9589C6.3725 4.9589 5.45841 5.87299 5.45841 7.00057Z" fill="white"/>
</svg>

<svg xmlns="http://www.w3.org/2000/svg" width="15" height="14" fill="none" viewBox="0 0 15 14"><path fill="#fff" fill-rule="evenodd" d="M3.72 3.916C4.715 3.14 6 2.48 7.5 2.48s2.785.66 3.78 1.436c.996.778 1.732 1.696 2.144 2.273l.03.044c.148.205.317.44.317.768s-.169.562-.316.767l-.031.044c-.412.577-1.148 1.495-2.144 2.273-.995.776-2.28 1.436-3.78 1.436s-2.785-.66-3.78-1.436c-.996-.778-1.732-1.696-2.143-2.273l-.031-.044c-.148-.205-.317-.44-.317-.767 0-.328.169-.563.317-.768l.03-.044c.412-.577 1.148-1.495 2.144-2.273m1.738 3.085a2.042 2.042 0 1 0 4.084 0 2.042 2.042 0 0 0-4.084 0" clip-rule="evenodd"/></svg>
